X: 1
T: Miss Hannah's Jig
T: Miss Hannah - Elgin
C: William Marshall
R: jig
Z: 2005 John Chambers <jc:trillian.mit.edu>
M: 6/8
L: 1/8
K: G
D \
| "G"G2G B{c}dB | "(Em)"GAG B{c}dB | "Am"A2a "(A7)"abg | "D7"f3 d2f \
| "G"g2g bag | "D7"fgf agf | "Am"eag "D7"fef | "G"g3 G2 :|
g \
| "G"b2g "D7"agf | "Em"gfe "Bm"def | "Em"gfg "A7"efg | "D7"a3 A2a \
| "G"b2g "D7"agf | "Em"gfe "Bm"def | "Em"gfe "D7"def | "G"g3 G2 |]
g \
| "G"bag "D7"agf | "Em"gfe "Bm"def | "Em"gfg "A7"efg | "D7"a3 A2a \
| "G"g{a}bg bag | "D7"f{g}af agf | "Am"eag "D7"fef | "G"g3 G2 |]
